!!!!SEGMENT: pl-wn--mus-iii-94-651--001-001_zelenski-wladyslaw--trzy-piesni-op-19-mloda-zaswatana.krn
!!!cenid: 18xx:3688
!!!COM: Żeleński, Władysław
!!!COM-rismID: pe41024455
!!!CDT: 1837/07/06-1921/01/23
!!!CNT: Polish
!!!GTL: Trzy pieśni op. 19
!!!OTL: Młoda zaswatana
!!!OMV: 001
!!!PDT:
!!!AGN:
!!!SMS-siglum: PL-Wn
!!!SMS-shelfmark: Mus.III.94.651
!!!SMS-shelfwork: 001-001 G
!!!SMS-variant:
!!!SMS-altvar:
!!!NIFC-rismSourceID:
!!!NIFC-rismChildID:
!!!NIFC-islandoraID: none
!!!URL-pdf-islandora:
!!!URL-scan: https://polona2.pl/item/trzy-piesni-z-towarzyszeniem-fortepianu-dzielo-19,NzQ3Nzg5MjA/0 @EN{Scan on Polona} @PL{Skany w portalu Polona}
!!!IIIF: https://polona2.pl/iiif/item/NzQ3Nzg5MjA/manifest.json
!!!ONB-nifc:
!!!AIN: 1 feme 1 piano
!!!key: d
!!!OMD: Andante con moto.
**kern	**kern	**dynam	**kern	**text	**text	**text	**text	**text	**dynam
*part2	*part2	*part2	*part1	*part1	*part1	*part1	*part1	*part1	*part1
*staff3	*staff2	*	*staff1	*staff1	*staff1	*staff1	*staff1	*staff1	*
*IGacmp	*	*	*IGsolo	*	*	*	*	*	*
*ICklav	*	*	*ICvox	*	*	*	*	*	*
*Ipiano	*	*	*Ifeme	*	*	*	*	*	*
*I"FORTEPIAN.	*	*	*I"ŚPIEW.	*	*	*	*	*	*
*>[I,A,A1,A,A1,A,A1,A,A1,A,A2]	*>[I,A,A1,A,A1,A,A1,A,A1,A,A2]	*	*>[I,A,A1,A,A1,A,A1,A,A1,A,A2]	*	*	*	*	*	*
*clefF4	*clefG2	*	*clefG2	*	*	*	*	*	*
*k[b-]	*k[b-]	*	*k[b-]	*	*	*	*	*	*
*d:	*d:	*	*d:	*	*	*	*	*	*
*M2/4	*M2/4	*	*M2/4	*	*	*	*	*	*
=1	=1	=1	=1	=1	=1	=1	=1	=1	=1
*>I	*>I	*>I	*>I	*>I	*>I	*>I	*>I	*>I	*>I
*^	*^	*	*	*	*	*	*	*	*
*xywh-2:239,1526,2607,634	*xywh-2:239,1526,2607,634	*xywh-2:239,1526,2607,634	*xywh-2:239,1526,2607,634	*	*xywh-2:231,267,2618,1305	*	*	*	*	*	*
!	!	!	!	!LO:DY:rj	!	!	!	!	!	!	!
8F/L	[2D\	[2a/	8d\L	p <	2r	.	.	.	.	.	.
8B-/	.	.	8g\	.	.	.	.	.	.	.	.
8A/	.	.	8f\	.	.	.	.	.	.	.	.
8G/J	.	.	8e\J	.	.	.	.	.	.	.	.
=2	=2	=2	=2	=2	=2	=2	=2	=2	=2	=2	=2
8F/L	2D\_	2a/_	8d\L	[	2r	.	.	.	.	.	.
8G/	.	.	8e\	>	.	.	.	.	.	.	.
8D/	.	.	8Bn\	.	.	.	.	.	.	.	.
8E/J	.	.	8c#X\J	.	.	.	.	.	.	.	.
.	.	.	.	]	.	.	.	.	.	.	.
=3!|:	=3!|:	=3!|:	=3!|:	=3!|:	=3!|:	=3!|:	=3!|:	=3!|:	=3!|:	=3!|:	=3!|:
*>A	*>A	*>A	*>A	*>A	*>A	*>A	*>A	*>A	*>A	*>A	*>A
!	!	!	!	!	!LO:TX:a:t=con duolo:i	!	!	!	!	!	!
8F/	4D\]	8a/]	8d\	.	4a/	1. Czyż	2. Czyż	3. Wyj-	4. Cho -	5. Sen,	.
8ryy	.	8A/ 8f 8a	8ryy	.	.	.	.	.	.	.	.
4ryy	4D\	8r	4ryy	.	8a/	ja	ja	-dę	-dzę	sen	.
.	.	8A/ 8f 8a	.	.	8a/	na	u	ja	o!	to	.
*v	*v	*	*	*	*	*	*	*	*	*	*
*	*v	*v	*	*	*	*	*	*	*	*
!!LO:LB:g=original
=4	=4	=4	=4	=4	=4	=4	=4	=4	=4
*xywh-2:159,2686,2662,903	*xywh-2:159,2686,2662,903	*	*xywh-2:242,2139,2618,591	*	*	*	*	*	*
!LO:TX:t=Uwaga. W strofie 3 i 4tej fraza&colon; Miła drużka i t.d. Rybka\nbuja i t.d. musi byc wykonaną trochę zywiej, z pewną lekkością,\n5ta zaś zwrotka połgłosem z deklamacyą wyrazistszą.:b:footnote	!	!	!	!	!	!	!	!	!
4D\	8r	.	4dd\	po-	oj-	cza-	bro-	lu-	.
.	8A/ 8f 8a	.	.	.	.	.	.	.	.
4D\	8r	.	4dd\	-lu	-ca	-sem	-dzę	-by!	.
.	8d/ 8f 8a	.	.	.	.	.	.	.	.
=5	=5	=5	=5	=5	=5	=5	=5	=5	=5
!	!	!	!	!	!	!	!	!	!LO:DY:a
4BB-/	8r	.	8d/	nie	nie	po	zaw-	To	>
.	8d/ 8f 8dd	.	8e/	ka-	dzie-	za	-sze	się	.
4B-\	8r	.	(8f/L	-li-	-ci-	wro-	łza-	śn[i]-	.
.	8d/ 8g	.	8g/J)	.	.	.	.	.	]
=6	=6	=6	=6	=6	=6	=6	=6	=6	=6
*	*^	*	*	*	*	*	*	*	*
*	*	*xywh-2:159,2686,2662,903	*	*	*	*	*	*	*	*
4.A\	8r	8ryy	.	4.a/	-na?	-na?	-ta	-wa	-ło	.
.	.	.	>	.	.	.	.	.	.	.
.	4.a/	8c#X\L	.	.	.	.	.	.	.	.
.	.	8f\	.	.	.	.	.	.	.	.
8G\	.	8e\J	]	8r	.	.	.	.	.	.
*	*v	*v	*	*	*	*	*	*	*	*
=7	=7	=7	=7	=7	=7	=7	=7	=7	=7
4F\	8r	.	4a/	Czyż	Czyż	cho-	szu-	w ser-	.
.	.	<	.	.	.	.	.	.	.
.	8d/ 8f 8a	.	.	.	.	.	.	.	.
!	!	!	!	!	!	!	!	!	!LO:DY:a
4F\	8r	.	8d/	ja	ja	-dzę	-mi	-cu	<
.	8d/ 8f 8a	.	8d/	na	u	o!	dą-	znów	.
=8	=8	=8	=8	=8	=8	=8	=8	=8	=8
4BBn/	8r	.	4dd\	po-	oj-	bro-	-bro-	smu-	.
.	8f/ 8a 8dd	.	.	.	.	.	.	.	.
4BB/	8r	.	4f/	-lu	-ca	-dzę	-wa	-tno	[
.	8A/ 8d 8f	[	.	.	.	.	.	.	.
!!LO:PB:g=original
=9	=9	=9	=9	=9	=9	=9	=9	=9	=9
*xywh-3:251,997,2556,521	*xywh-3:251,997,2556,521	*	*xywh-3:259,277,2527,756	*	*	*	*	*	*
4C/	8r	.	8f/	nie	nie	jak	i	i	.
!	!	!	!	!	!	!	!	!	!LO:DY:a
.	8A/ 8d 8f	.	8f/	je-	je-	sie-	Ra-	nie-	>
4C/	8r	.	(8g/L	-dy-	-dy-	-ro-	-sa-	-mi-	.
.	8B-/ 8e 8g	.	8c/J)	.	.	.	.	.	]
=10	=10	=10	=10	=10	=10	=10	=10	=10	=10
4F\	8r	.	4.a/	-na?	-na?	-ta.	-wa.	-ło.	.
.	8c/ 8f 8a	.	.	.	.	.	.	.	.
8.E\L	8r	.	.	.	.	.	.	.	.
.	8c#X/ 8g 8a	.	8r	.	.	.	.	.	.
16A\Jk	.	.	.	.	.	.	.	.	.
=11	=11	=11	=11	=11	=11	=11	=11	=11	=11
!	!	!	!LO:TX:a:t=espress.:i	!	!	!	!	!	!
4d\	8r	.	4ff^\	Cze-	Cze-	Mi-	Ryb-	Ry-	.
.	8f/ 8a	.	.	.	.	.	.	.	.
4c\	8r	.	4ee\	-muż	-muż	-ła	-ka	-bo-	.
.	8e/ 8a	.	.	.	.	.	.	.	.
=12	=12	=12	=12	=12	=12	=12	=12	=12	=12
4B-\	8r	.	(16ee\LL	mnie_	cze-_	druż-	bu-	-łów-	.
.	.	.	16dd\	.	.	.	.	.	.
.	8d/ 8f 8dd	.	16ff\	.	.	.	.	.	.
.	.	.	16dd\JJ	.	.	.	.	.	.
4BB-/	8r	.	8b-\)	.	.	.	.	.	.
.	8d/ 8f 8dd	.	8b-\	tak	-mu	-ka	-ja	-ka	.
=13	=13	=13	=13	=13	=13	=13	=13	=13	=13
4B-\	8r	.	4dd^\	w mo-	w mo-	mnie	w swo-	ryb-	.
.	8f/ 8b- 8dd	.	.	.	.	.	.	.	.
4E\	8r	.	4b-\	-je	-je	z da-	-jej	-kę	.
.	8d/ 8g 8b-	.	.	.	.	.	.	.	.
!!LO:LB:g=original
=14	=14	=14	=14	=14	=14	=14	=14	=14	=14
*xywh-3:248,1989,2608,525	*xywh-3:248,1989,2608,525	*	*xywh-3:251,1457,2582,591	*	*	*	*	*	*
4F\	8r	.	(16b-/LL	ra-	ra-	-le-	wo-	mło-	.
.	.	.	16a/	.	.	.	.	.	.
.	8c/ 8g 8a	.	16cc/	.	.	.	.	.	.
.	.	.	16a/JJ	.	.	.	.	.	.
4D\	8r	.	8f/)	.	.	.	.	.	.
.	8c/ 8f 8a	.	8f/	-no.	-no?	-ka.	-dzie	-dą	.
=15	=15	=15	=15	=15	=15	=15	=15	=15	=15
!	!	!	!	!	!	!	!	!	!LO:DY:a:rj
4G\	8r	pp	8b-/	W pą-	Ca-	Zaj-	Bu-	Roz-	pp
.	8B-/ 8f 8b-	.	8b-/	-czkach	-ły	-rzy	-ja	-łą-	.
4C#X/	8r	.	8g/	je-	świát	led-	pta-	-czy-	.
.	8B-/ 8e 8g	.	8g/	-szcze	mi	-wo	-szek	-ła	.
=16	=16	=16	=16	=16	=16	=16	=16	=16	=16
4D\	8r	.	(16g/LL	po-	za-	i	na	o-	.
.	.	.	16f/JJ)	.	.	.	.	.	.
.	8A/ 8e 8f	.	(16a/LL	-ła-	-wią-	u-	swo-	-to	.
.	.	.	16f/JJ)	.	.	.	.	.	.
4FF/	8r	.	8d/	-ma-	-za-	-cie-	-bo-	z wo-	.
.	8A/ 8d 8a	.	16d/	-no?	-no?	-ka:	-dzie:	-dą.	.
.	.	.	16d/	Nie-	Nie-	Nie-	Nie-	Nie-	.
=17	=17	=17	=17	=17	=17	=17	=17	=17	=17
!	!	!LO:DY:rj	!	!	!	!	!	!	!
8BB-;\ 8F	8d;/ 8f 8dd	f	8ff;\	-do-	-do-	-do-	-do-	-do-	.
!	!	!	!	!	!	!	!	!	!LO:DY:a
.	.	.	.	.	.	.	.	.	>
8r	8r	.	(16ee\LL	-laż	-laż	-laż	-laż	-laż	.
.	.	.	16dd\JJ)	.	.	.	.	.	.
8r	8r	.	8cc\	mo-	mo-	mo-	mo-	mo-	.
8GG/ 8F	8d/ 8b-	pp	8b-\	-ja!	-ja!	-ja!	-ja!	-ja!	]
!!LO:LB:g=original
=18	=18	=18	=18	=18	=18	=18	=18	=18	=18
*^	*^	*	*	*	*	*	*	*	*
*xywh-3:259,2908,2578,716	*xywh-3:259,2908,2578,716	*xywh-3:259,2908,2578,716	*xywh-3:259,2908,2578,716	*	*xywh-3:251,2485,2623,437	*	*	*	*	*	*
!	!	!	!	!	!	!	!	!	!	!	!LO:DY:a
8F/L	2AA\	2a/	8d\L	<	8a/	mo-	.	.	.	.	pp
8E/	.	.	8c#X\	[[	16a/	-ja	.	.	.	.	.
.	.	.	.	>	16a/	nie-	.	.	.	.	.
8A/	.	.	8f\	.	4a/	-do-	.	.	.	.	.
8G/J	.	.	8e\J	]	.	.	.	.	.	.	.
=19	=19	=19	=19	=19	=19	=19	=19	=19	=19	=19	=19
!LO:TX:t=per repetere.	!	!	!	!	!	!	!	!	!	!	!
*>A1	*>A1	*>A1	*>A1	*>A1	*>A1	*>A1	*>A1	*>A1	*>A1	*>A1	*>A1
8F/L	[<2D\	[2a/	8d\L	<	[2a/	-la !_	.	.	.	.	.
8B-/	.	.	8g\	.	.	.	.	.	.	.	.
8A/	.	.	8f\	.	.	.	.	.	.	.	.
8G/J	.	.	8e\J	.	.	.	.	.	.	.	.
=20	=20	=20	=20	=20	=20	=20	=20	=20	=20	=20	=20
8F/L	2D\_<	2a/_>	8d\L	[	4a/]	.	.	.	.	.	.
8G/	.	.	8e\	>	.	.	.	.	.	.	.
8D/	.	.	8Bn\	.	4r	.	.	.	.	.	.
8E/J	.	.	8c#X\J	]	.	.	.	.	.	.	.
=21:|!	=21:|!	=21:|!	=21:|!	=21:|!	=21:|!	=21:|!	=21:|!	=21:|!	=21:|!	=21:|!	=21:|!
!LO:TX:t=per finire.	!	!	!	!	!	!	!	!	!	!	!
*>A2	*A2	*A2	*A2	*A2	*A2	*A2	*A2	*A2	*A2	*A2	*A2
!	!	!LO:TX:b:i:t=rit.un poco	!	!	!	!	!	!	!	!	!
8F/	8D\]<	8a/]>	8d\	.	2r	.	.	.	.	.	.
8ryy	8AA\L	8r	8ryy	.	.	.	.	.	.	.	.
4ryy	8FF\	4F</ 4A< 4d	4ryy	.	.	.	.	.	.	.	.
.	8EE\J	.	.	.	.	.	.	.	.	.	.
*	*	*v	*v	*	*	*	*	*	*	*	*
=22	=22	=22	=22	=22	=22	=22	=22	=22	=22	=22
2ryy	2DD\	2F</ 2A< 2d	.	2r	.	.	.	.	.	.
*v	*v	*	*	*	*	*	*	*	*	*
==	==	==	==	==	==	==	==	==	==
*-	*-	*-	*-	*-	*-	*-	*-	*-	*-
!!!system-decoration: s1{(s2,s3)}
!!!RDF**kern: > = above
!!!RDF**kern: < = below
!!!ENC: Anastazja Marusiak
!!!END: 2022-03-11
!!!ENC: Krzysztof Stępień
!!!END: 2022-03-17
!!!ENC-iiif: Emilia Ziętek
!!!END-iiif: 2022-08-23
!!!YEC: Copyright 2022 Narodowy Instytut Fryderyka Chopina (https://polishscores.org)
!!!YEM: License CC-BY-4.0 (https://creativecommons.org/licenses/by/4.0)
